img/benefit-icons/img5.svg

<svg width="35" height="35" viewBox="0 0 35 35" fill="none" xmlns="http://www.w3.org/2000/svg">
<path d="M30.0703 9.6875H26.5547V8.51562H27.1699C27.4935 8.51562 27.7266 8.24598 27.7266 7.92242V5.57867C27.7266 5.25512 27.4935 5 27.1699 5H19.8457C19.5221 5 19.2305 5.25506 19.2305 5.57867V7.92242C19.2305 8.24598 19.5221 8.51562 19.8457 8.51562H20.4023V9.6875H5.92969C4.31426 9.6875 3 11.0077 3 12.6099V21.5748C3 23.2034 4.31426 24.5117 5.92969 24.5117H11.5277C12.0771 24.5117 12.5811 24.761 12.9104 25.1811L16.1906 29.3649C16.744 30.071 17.6057 30.4883 18.4957 30.4883H30.0703C31.6857 30.4883 33 29.1907 33 27.5752V25.1143C33 24.7914 32.7369 24.5284 32.4141 24.5284C32.0912 24.5284 31.8281 24.7914 31.8281 25.1143V27.5752C31.8281 28.5445 31.0396 29.3164 30.0703 29.3164H18.4957C17.9629 29.3164 17.446 29.0711 17.1131 28.6463L13.8328 24.4542C13.2798 23.7487 12.4396 23.3398 11.5277 23.3398H5.92969C4.96043 23.3398 4.17188 22.5195 4.17188 21.582H5.92969C6.2533 21.582 6.51562 21.3124 6.51562 20.9888V18.6039C7.02879 18.4711 7.34941 18.1596 7.59873 17.9163C7.88889 17.6332 8.04375 17.4971 8.39004 17.4971C8.73674 17.4971 8.89172 17.6332 9.18205 17.9165C9.50754 18.234 9.95338 18.669 10.7924 18.669C11.6314 18.669 12.0772 18.234 12.4027 17.9165C12.693 17.6332 12.848 17.4971 13.1947 17.4971C13.5415 17.4971 13.6964 17.6332 13.9867 17.9165C14.3122 18.234 14.7581 18.669 15.5971 18.669C16.4361 18.669 16.8819 18.234 17.2074 17.9165C17.4977 17.6332 17.6527 17.4971 17.9994 17.4971C18.3462 17.4971 18.5011 17.6332 18.7914 17.9165C19.1169 18.234 19.5628 18.669 20.4018 18.669C21.2408 18.669 21.6866 18.234 22.0121 17.9165C22.3024 17.6332 22.4573 17.4971 22.8041 17.4971C23.1509 17.4971 23.3058 17.6332 23.5961 17.9165C23.9216 18.234 24.3674 18.669 25.2064 18.669C26.0454 18.669 26.4913 18.234 26.8168 17.9165C27.1071 17.6332 27.262 17.4971 27.6088 17.4971C27.9555 17.4971 28.1105 17.6332 28.4008 17.9165C28.7263 18.234 29.1721 18.669 30.0111 18.669C30.8505 18.669 31.2964 18.234 31.6221 17.9165C31.6981 17.8423 31.7648 17.7785 31.8281 17.7243V19.8409C31.8281 20.1637 32.0912 20.4268 32.4141 20.4268C32.7369 20.4268 33 20.1637 33 19.8409V12.6099C33 11.0077 31.6857 9.6875 30.0703 9.6875ZM20.4023 6.17188H26.5547V7.34375H20.4023V6.17188ZM5.34375 20.4102H4.17188V14.5508H5.34375V20.4102ZM30.8038 17.0776C30.5133 17.3609 30.3582 17.4971 30.0111 17.4971C29.6644 17.4971 29.5095 17.361 29.2191 17.0777C28.8936 16.7602 28.4478 16.3252 27.6088 16.3252C26.7698 16.3252 26.3239 16.7602 25.9985 17.0777C25.7081 17.361 25.5532 17.4971 25.2064 17.4971C24.8597 17.4971 24.7048 17.361 24.4144 17.0777C24.0889 16.7602 23.6431 16.3252 22.8041 16.3252C21.9651 16.3252 21.5193 16.7602 21.1938 17.0777C20.9034 17.361 20.7485 17.4971 20.4018 17.4971C20.055 17.4971 19.9001 17.361 19.6097 17.0777C19.2843 16.7602 18.8384 16.3252 17.9994 16.3252C17.1604 16.3252 16.7146 16.7602 16.3891 17.0777C16.0988 17.361 15.9438 17.4971 15.5971 17.4971C15.2503 17.4971 15.0954 17.361 14.8051 17.0777C14.4796 16.7602 14.0337 16.3252 13.1947 16.3252C12.3557 16.3252 11.9099 16.7602 11.5844 17.0777C11.2941 17.361 11.1391 17.4971 10.7924 17.4971C10.4456 17.4971 10.2907 17.361 10.0004 17.0777C9.67488 16.7602 9.22904 16.3252 8.39004 16.3252C7.55133 16.3252 7.10566 16.7601 6.78023 17.0776C6.68045 17.175 6.59666 17.2546 6.51557 17.3177V13.9576C6.51557 13.634 6.25324 13.3789 5.92963 13.3789H4.17188V12.6099C4.17188 11.6538 4.96043 10.8594 5.92969 10.8594H20.4023V13.9578C20.4023 14.2813 20.6647 14.5437 20.9883 14.5437C21.3119 14.5437 21.5742 14.2813 21.5742 13.9578V8.51562H25.3828V13.9578C25.3828 14.2813 25.6451 14.5437 25.9688 14.5437C26.2924 14.5437 26.5547 14.2813 26.5547 13.9578V10.8594H30.0703C31.0396 10.8594 31.8281 11.6538 31.8281 12.6099V16.4063C31.3491 16.547 31.0435 16.8438 30.8038 17.0776Z" fill="#0383FD"/>
<path d="M32.4141 23.0635C32.7377 23.0635 33 22.8012 33 22.4776C33 22.154 32.7377 21.8916 32.4141 21.8916C32.0905 21.8916 31.8281 22.154 31.8281 22.4776C31.8281 22.8012 32.0905 23.0635 32.4141 23.0635Z" fill="#0383FD"/>
</svg>

<svg width="35" height="35" fill="none" xmlns="http://www.w3.org/2000/svg"><path d="M30.07 9.688h-3.515V8.515h.615c.323 0 .557-.27.557-.594V5.58c0-.324-.233-.579-.557-.579h-7.324c-.324 0-.616.255-.616.579v2.343c0 .324.292.594.616.594h.556v1.171H5.93A2.935 2.935 0 003 12.61v8.965a2.93 2.93 0 002.93 2.937h5.598c.55 0 1.053.249 1.382.67l3.28 4.183a2.949 2.949 0 002.306 1.123H30.07A2.919 2.919 0 0033 27.575v-2.46a.587.587 0 00-1.172 0v2.46c0 .97-.788 1.741-1.758 1.741H18.496c-.533 0-1.05-.245-1.383-.67l-3.28-4.192a2.91 2.91 0 00-2.305-1.114H5.93c-.97 0-1.758-.82-1.758-1.758H5.93c.323 0 .586-.27.586-.593v-2.385c.513-.133.833-.444 1.083-.688.29-.283.445-.419.791-.419.347 0 .502.136.792.42.326.317.771.752 1.61.752.84 0 1.285-.435 1.61-.753.291-.283.446-.419.793-.419.346 0 .501.136.792.42.325.317.771.752 1.61.752.84 0 1.285-.435 1.61-.753.29-.283.446-.419.792-.419.347 0 .502.136.792.42.326.317.772.752 1.61.752.84 0 1.286-.435 1.611-.753.29-.283.445-.419.792-.419.347 0 .502.136.792.42.326.317.771.752 1.61.752.84 0 1.285-.435 1.61-.753.291-.283.446-.419.793-.419.346 0 .501.136.792.42.325.317.771.752 1.61.752.84 0 1.285-.435 1.611-.753.076-.074.143-.137.206-.192v2.117a.587.587 0 001.172 0V12.61a2.935 2.935 0 00-2.93-2.922zm-9.668-3.516h6.153v1.172h-6.153V6.172zM5.344 20.41H4.172v-5.86h1.172v5.86zm25.46-3.332c-.29.283-.446.42-.793.42-.347 0-.502-.137-.792-.42-.325-.318-.771-.753-1.61-.753-.84 0-1.285.435-1.61.753-.29.283-.446.42-.793.42-.346 0-.501-.137-.792-.42-.325-.318-.77-.753-1.61-.753-.839 0-1.285.435-1.61.753-.29.283-.445.42-.792.42-.347 0-.502-.137-.792-.42-.326-.318-.772-.753-1.61-.753-.84 0-1.285.435-1.61.753-.291.283-.446.42-.793.42-.347 0-.502-.137-.792-.42-.325-.318-.771-.753-1.61-.753-.84 0-1.285.435-1.61.753-.29.283-.446.42-.793.42-.346 0-.501-.137-.792-.42-.325-.318-.771-.753-1.61-.753-.839 0-1.284.435-1.61.753a3.41 3.41 0 01-.264.24v-3.36a.58.58 0 00-.586-.58H4.172v-.768c0-.956.788-1.75 1.758-1.75h14.472v3.098a.586.586 0 001.172 0V8.516h3.809v5.442a.586.586 0 001.172 0v-3.099h3.515c.97 0 1.758.795 1.758 1.75v3.797c-.479.141-.784.438-1.024.672z" fill="#0383FD"/><path d="M32.414 23.064a.586.586 0 100-1.172.586.586 0 000 1.172z" fill="#0383FD"/></svg>
